X: 11941
T: En Armorique
R: reel
M: 4/4
K: Adorian
A2 BG A2 B/2c/2d|egfa gedB|G2 BE GEBE|GEBA GEDE|
EAAG A2 B/2c/2d|egfg efg2|gfge dGBd|gfgd BA A2||
a2 ea a2 ea|aeba gede|Bdba gbaf|gdba gede|
a2 ca a2 ca|aeba gede|gfge dGBd|gfgd BA A2||

